X: 673
P: Longways for as many as will
M: 6/4
L: 1/4
K: F
c |\
f>ed (e/f/)ge | fFF F2 |]\
f |\
f>ga gab | a>gf e>fg |
f>ef dgf | ecc c2c |\
def c2f | B2f A2f |\

